TH1/logy.svg

<svg xmlns="http://www.w3.org/2000/svg" viewBox="0 0 1200 800" preserveAspectRatio="none" width="1200" height="800">
 <path d="M0,0H1200V800H0Z" style="fill: white;"></path>
 <g>
  <g transform="translate(120,80)">
   <path d="M0,0H960V640H0Z" style="fill: white; stroke: black; stroke-width: 1;"></path>
   <svg x="0" y="0" overflow="hidden" width="960" height="640" viewBox="0 0 960 640">
    <g>
     <path d="M0,645h19v-157h10v157h38v-189h10v-23h19v-45h10v27h9v-63h10v-19h9v-5h10v-35h10v4h9v-32h10v-14h9v-27h10v11h10v-29h9v11h10v-28h9v-24h10v-1h10v-3h9v-28h10v-4h9v-7h10v-9h10v-21h9v-1h10v-9h9v-4h10v-12h10v-4h9v-12h10v-8h19v-8h10v-5h9v-12h10v6h9v-9h10v7h10v-8h9v-4h10v2h9v4h10v-5h10v-6h9v10h19v2h10v1h10v8h9v3h10v2h9v4h10v3h10v2h9v8h10v11h9v3h10v6h10v20h9v-2h10v11h9v11h10v8h10v12h9v12h10v19h9v-2h10v22h10v7h9v23h10v5h9v25h10v22h10v-24h9v36h10v21h9v25h20v27h9v-6h10v117h9v-78h10v23h10v87h28v157h48v-101h10" style="stroke-linejoin: miter; stroke: #00009a; stroke-width: 1; fill: none;"></path>
    </g>
   </svg>
   <g>
    <g transform="translate(0,640)">
     <path d="M0,0h960M0,-24v24m24,-12v12m24,-12v12m24,-12v12m24,-12v12m24,-24v24m24,-12v12m24,-12v12m24,-12v12m24,-12v12m24,-24v24m24,-12v12m24,-12v12m24,-12v12m24,-12v12m24,-24v24m24,-12v12m24,-12v12m24,-12v12m24,-12v12m24,-24v24m24,-12v12m24,-12v12m24,-12v12m24,-12v12m24,-24v24m24,-12v12m24,-12v12m24,-12v12m24,-12v12m24,-24v24m24,-12v12m24,-12v12m24,-12v12m24,-12v12m24,-24v24m24,-12v12m24,-12v12m24,-12v12m24,-12v12m24,-24v24" style="stroke: black; stroke-width: 1;"></path>
     <g font-family="Arial" font-size="28" space="preserve" fill="black" text-anchor="middle">
      <text dy=".8em" transform="translate(0,6)">
       -4
      </text>
      <text dy=".8em" transform="translate(120,6)">
       -3
      </text>
      <text dy=".8em" transform="translate(240,6)">
       -2
      </text>
      <text dy=".8em" transform="translate(360,6)">
       -1
      </text>
      <text dy=".8em" transform="translate(480,6)">
       0
      </text>
      <text dy=".8em" transform="translate(600,6)">
       1
      </text>
      <text dy=".8em" transform="translate(720,6)">
       2
      </text>
      <text dy=".8em" transform="translate(840,6)">
       3
      </text>
      <text dy=".8em" transform="translate(960,6)">
       4
      </text>
     </g>
    </g>
    <g>
     <path d="M0,0v640M18,640h-18m18,-23h-18m18,-18h-18m18,-14h-18m18,-13h-18m18,-10h-18m18,-10h-18m36,-8h-36m18,-56h-18m18,-32h-18m18,-23h-18m18,-18h-18m18,-14h-18m18,-13h-18m18,-10h-18m18,-10h-18m36,-8h-36m18,-55h-18m18,-33h-18m18,-23h-18m18,-18h-18m18,-14h-18m18,-12h-18m18,-11h-18m18,-10h-18m36,-8h-36m18,-55h-18m18,-33h-18m18,-23h-18m18,-18h-18m18,-14h-18m18,-12h-18m18,-11h-18m18,-9h-18" style="stroke: black; stroke-width: 1;"></path>
     <g font-family="Arial" font-size="28" space="preserve">
      <g transform="translate(-43,556)">
       <text fill="black" font-size="28">
        10
       </text>
       <text fill="black" font-size="17" transform="translate(30,-14)">
        0
       </text>
      </g>
      <g transform="translate(-43,372)">
       <text fill="black" font-size="28">
        10
       </text>
       <text fill="black" font-size="17" transform="translate(30,-14)">
        1
       </text>
      </g>
      <g transform="translate(-43,188)">
       <text fill="black" font-size="28">
        10
       </text>
       <text fill="black" font-size="17" transform="translate(30,-14)">
        2
       </text>
      </g>
     </g>
    </g>
   </g>
  </g>
  <g transform="translate(120,4)" font-family="Arial" font-size="40" space="preserve">
   <text fill="black" text-anchor="middle" dy=".8em" transform="translate(480)">
    This is the px distribution
   </text>
  </g>
  <g transform="translate(936,52)" font-family="Arial" font-size="25" space="preserve" fill="black">
   <path d="M0,0H240V128H0Z" style="fill: white; stroke: black; stroke-width: 1;"></path>
   <text text-anchor="middle" dy=".4em" transform="translate(120,16)">
    hpx
   </text>
   <text text-anchor="start" dy=".4em" transform="translate(12,48)">
    Entries
   </text>
   <text text-anchor="end" dy=".4em" transform="translate(228,48)">
    25000
   </text>
   <text text-anchor="start" dy=".4em" transform="translate(12,80)">
    Mean
   </text>
   <text text-anchor="end" dy=".4em" transform="translate(228,80)">
    0.003163
   </text>
   <text text-anchor="start" dy=".4em" transform="translate(12,112)">
    Std Dev
   </text>
   <text text-anchor="end" dy=".4em" transform="translate(228,112)">
    1.004
   </text>
   <path d="M0,32h240" style="stroke: black; stroke-width: 1;"></path>
  </g>
 </g>
</svg>

<svg xmlns="http://www.w3.org/2000/svg" viewBox="0 0 1200 800" preserveAspectRatio="none" width="1200" height="800">
 <path d="M0,0H1200V800H0Z" style="fill: white;"></path>
 <g>
  <g transform="translate(120,80)">
   <path d="M0,0H960V640H0Z" style="fill: white; stroke: black; stroke-width: 1;"></path>
   <svg x="0" y="0" overflow="hidden" width="960" height="640" viewBox="0 0 960 640">
    <g>
     <path d="M0,645h19v-157h10v157h38v-189h10v-23h19v-45h10v27h9v-63h10v-19h9v-5h10v-35h10v4h9v-32h10v-14h9v-27h10v11h10v-29h9v11h10v-28h9v-24h10v-1h10v-3h9v-28h10v-4h9v-7h10v-9h10v-21h9v-1h10v-9h9v-4h10v-12h10v-4h9v-12h10v-8h19v-8h10v-5h9v-12h10v6h9v-9h10v7h10v-8h9v-4h10v2h9v4h10v-5h10v-6h9v10h19v2h10v1h10v8h9v3h10v2h9v4h10v3h10v2h9v8h10v11h9v3h10v6h10v20h9v-2h10v11h9v11h10v8h10v12h9v12h10v19h9v-2h10v22h10v7h9v23h10v5h9v25h10v22h10v-24h9v36h10v21h9v25h20v27h9v-6h10v117h9v-78h10v23h10v87h28v157h48v-101h10" style="stroke-linejoin: miter; stroke: #00009a; stroke-width: 1; fill: none;"></path>
    </g>
   </svg>
   <g>
    <g transform="translate(0,640)">
     <path d="M0,0h960M0,-24V0M24,-12V0M48,-12V0M72,-12V0M96,-12V0M120,-24V0M144,-12V0M168,-12V0M192,-12V0M216,-12V0M240,-24V0M264,-12V0M288,-12V0M312,-12V0M336,-12V0M360,-24V0M384,-12V0M408,-12V0M432,-12V0M456,-12V0M480,-24V0M504,-12V0M528,-12V0M552,-12V0M576,-12V0M600,-24V0M624,-12V0M648,-12V0M672,-12V0M696,-12V0M720,-24V0M744,-12V0M768,-12V0M792,-12V0M816,-12V0M840,-24V0M864,-12V0M888,-12V0M912,-12V0M936,-12V0M960,-24V0" style="stroke: black; stroke-width: 1;"></path>
     <g font-family="Arial" font-size="28" space="preserve" fill="black" text-anchor="middle">
      <text dy=".8em" transform="translate(0,6)">
       -4
      </text>
      <text dy=".8em" transform="translate(120,6)">
       -3
      </text>
      <text dy=".8em" transform="translate(240,6)">
       -2
      </text>
      <text dy=".8em" transform="translate(360,6)">
       -1
      </text>
      <text dy=".8em" transform="translate(480,6)">
       0
      </text>
      <text dy=".8em" transform="translate(600,6)">
       1
      </text>
      <text dy=".8em" transform="translate(720,6)">
       2
      </text>
      <text dy=".8em" transform="translate(840,6)">
       3
      </text>
      <text dy=".8em" transform="translate(960,6)">
       4
      </text>
     </g>
    </g>
    <g>
     <path d="M0,0v640M18,640H0M18,617H0M18,599H0M18,585H0M18,572H0M18,562H0M18,552H0M36,544H0M18,488H0M18,456H0M18,433H0M18,415H0M18,401H0M18,388H0M18,378H0M18,368H0M36,360H0M18,305H0M18,272H0M18,249H0M18,231H0M18,217H0M18,205H0M18,194H0M18,184H0M36,176H0M18,121H0M18,88H0M18,65H0M18,47H0M18,33H0M18,21H0M18,10H0M18,1H0" style="stroke: black; stroke-width: 1;"></path>
     <g font-family="Arial" font-size="28" space="preserve">
      <g transform="translate(-43,556)">
       <text fill="black" font-size="28">
        10
       </text>
       <text fill="black" font-size="17" transform="translate(30,-14)">
        0
       </text>
      </g>
      <g transform="translate(-43,372)">
       <text fill="black" font-size="28">
        10
       </text>
       <text fill="black" font-size="17" transform="translate(30,-14)">
        1
       </text>
      </g>
      <g transform="translate(-43,188)">
       <text fill="black" font-size="28">
        10
       </text>
       <text fill="black" font-size="17" transform="translate(30,-14)">
        2
       </text>
      </g>
     </g>
    </g>
   </g>
  </g>
  <g transform="translate(120,4)" font-family="Arial" font-size="40" space="preserve">
   <text fill="black" text-anchor="middle" dy=".8em" transform="translate(480)">
    This is the px distribution
   </text>
  </g>
  <g transform="translate(936,52)" font-family="Arial" font-size="25" space="preserve" fill="black">
   <path d="M0,0H240V128H0Z" style="fill: white; stroke: black; stroke-width: 1;"></path>
   <text text-anchor="middle" dy=".4em" transform="translate(120,16)">
    hpx
   </text>
   <text text-anchor="start" dy=".4em" transform="translate(12,48)">
    Entries
   </text>
   <text text-anchor="end" dy=".4em" transform="translate(228,48)">
    25000
   </text>
   <text text-anchor="start" dy=".4em" transform="translate(12,80)">
    Mean
   </text>
   <text text-anchor="end" dy=".4em" transform="translate(228,80)">
    0.003163
   </text>
   <text text-anchor="start" dy=".4em" transform="translate(12,112)">
    Std Dev
   </text>
   <text text-anchor="end" dy=".4em" transform="translate(228,112)">
    1.004
   </text>
   <path d="M0,32h240" style="stroke: black; stroke-width: 1;"></path>
  </g>
 </g>
</svg>
